Numix/64/mimetypes/application-x-sharedlib.svg

<?xml version="1.0" encoding="UTF-8" standalone="no"?>
<svg
   xmlns:dc="http://purl.org/dc/elements/1.1/"
   xmlns:cc="http://creativecommons.org/ns#"
   xmlns:rdf="http://www.w3.org/1999/02/22-rdf-syntax-ns#"
   xmlns:svg="http://www.w3.org/2000/svg"
   xmlns="http://www.w3.org/2000/svg"
   xmlns:sodipodi="http://sodipodi.sourceforge.net/DTD/sodipodi-0.dtd"
   xmlns:inkscape="http://www.inkscape.org/namespaces/inkscape"
   width="64px"
   height="64px"
   viewBox="0 0 64 64"
   version="1.1"
   id="svg2"
   inkscape:version="0.91 r13725"
   sodipodi:docname="application-x-sharedlib.svg">
  <metadata
     id="metadata15">
    <rdf:RDF>
      <cc:Work
         rdf:about="">
        <dc:format>image/svg+xml</dc:format>
        <dc:type
           rdf:resource="http://purl.org/dc/dcmitype/StillImage" />
        <dc:title />
      </cc:Work>
    </rdf:RDF>
  </metadata>
  <defs
     id="defs13" />
  <sodipodi:namedview
     pagecolor="#ffffff"
     bordercolor="#666666"
     borderopacity="1"
     objecttolerance="10"
     gridtolerance="10"
     guidetolerance="10"
     inkscape:pageopacity="0"
     inkscape:pageshadow="2"
     inkscape:window-width="1920"
     inkscape:window-height="1013"
     id="namedview11"
     showgrid="true"
     inkscape:zoom="16"
     inkscape:cx="39.401851"
     inkscape:cy="24.584106"
     inkscape:window-x="0"
     inkscape:window-y="27"
     inkscape:window-maximized="1"
     inkscape:current-layer="svg2">
    <inkscape:grid
       type="xygrid"
       id="grid4326" />
  </sodipodi:namedview>
  <path
     inkscape:connector-curvature="0"
     id="path5"
     d="M 10.671875,0 C 9.296875,0 8,1.355469 8,2.789062 L 8,61.210938 C 8,62.566406 9.375,64 10.671875,64 l 42.65625,0 C 54.625,64 56,62.566406 56,61.210938 L 56,18 38,0 Z m 0,0"
     style="fill:#dcdcdc;fill-opacity:1;fill-rule:nonzero;stroke:none" />
  <path
     inkscape:connector-curvature="0"
     id="path9"
     d="M 38,0 55.984375,18 40.757812,18 C 39.410156,18 38,16.574219 38,15.226562 Z m 0,0"
     style="fill:#ffffff;fill-opacity:0.39215698;fill-rule:nonzero;stroke:none" />
  <path
     inkscape:connector-curvature="0"
     id="path7"
     d="m 42,18 14,14 0,-14 z m 0,0"
     style="fill:#000000;fill-opacity:0.19607801;fill-rule:nonzero;stroke:none" />
  <g
     id="g4403-1"
     transform="matrix(0.94444444,0,0,0.94444444,-6.8888885,9.333333)"
     inkscape:transform-center-x="0.92807765"
     inkscape:transform-center-y="14.009553"
     style="fill:#999999">
    <path
       style="color:#000000;display:inline;overflow:visible;visibility:visible;fill:#888888;fill-opacity:1;fill-rule:nonzero;stroke:none;stroke-width:1;marker:none;enable-background:accumulate"
       d="M 29 41 L 29 48 L 36 48 L 36 41 L 29 41 z M 30 42 L 35 42 L 35 47 L 30 47 L 30 42 z "
       transform="matrix(1.0588235,0,0,1.0588235,7.2941173,-9.8823526)"
       id="path3078-7" />
  </g>
  <g
     id="g4403-1-6"
     transform="matrix(0.94444444,0,0,0.94444444,-15.888889,0.3333333)"
     inkscape:transform-center-x="0.92807765"
     inkscape:transform-center-y="14.009553"
     style="fill:#999999">
    <path
       inkscape:connector-curvature="0"
       style="color:#000000;display:inline;overflow:visible;visibility:visible;fill:#888888;fill-opacity:1;fill-rule:nonzero;stroke:none;stroke-width:1;marker:none;enable-background:accumulate"
       d="m 29,41 0,7 7,0 0,-7 -7,0 z m 1,1 5,0 0,5 -5,0 0,-5 z"
       transform="matrix(1.0588235,0,0,1.0588235,7.2941173,-9.8823526)"
       id="path3078-7-9" />
  </g>
  <g
     id="g4403-1-65"
     transform="matrix(0.94444444,0,0,0.94444444,-6.8888886,-8.6666667)"
     inkscape:transform-center-x="0.92807765"
     inkscape:transform-center-y="14.009553"
     style="fill:#999999">
    <path
       inkscape:connector-curvature="0"
       style="color:#000000;display:inline;overflow:visible;visibility:visible;fill:#888888;fill-opacity:1;fill-rule:nonzero;stroke:none;stroke-width:1;marker:none;enable-background:accumulate"
       d="m 29,41 0,7 7,0 0,-7 -7,0 z m 1,1 5,0 0,5 -5,0 0,-5 z"
       transform="matrix(1.0588235,0,0,1.0588235,7.2941173,-9.8823526)"
       id="path3078-7-1" />
  </g>
  <g
     id="g4403-6"
     transform="matrix(0.94444444,0,0,0.94444444,-6.4444435,-0.11111096)"
     inkscape:transform-center-x="0.92807765"
     inkscape:transform-center-y="14.009553"
     style="fill:#999999">
    <path
       sodipodi:nodetypes="ccccc"
       id="path3078-6"
       d="m 37.529412,34 0,7.411765 7.411765,0 0,-7.411765 z"
       style="color:#000000;display:inline;overflow:visible;visibility:visible;fill:#888888;fill-opacity:1;fill-rule:nonzero;stroke:none;stroke-width:1;marker:none;enable-background:accumulate"
       inkscape:connector-curvature="0" />
  </g>
  <g
     id="g4403-1-9"
     transform="matrix(0.94444444,0,0,0.94444444,2.1111114,0.3333333)"
     inkscape:transform-center-x="0.92807765"
     inkscape:transform-center-y="14.009553"
     style="fill:#999999">
    <path
       inkscape:connector-curvature="0"
       style="color:#000000;display:inline;overflow:visible;visibility:visible;fill:#888888;fill-opacity:1;fill-rule:nonzero;stroke:none;stroke-width:1;marker:none;enable-background:accumulate"
       d="m 29,41 0,7 7,0 0,-7 -7,0 z m 1,1 5,0 0,5 -5,0 0,-5 z"
       transform="matrix(1.0588235,0,0,1.0588235,7.2941173,-9.8823526)"
       id="path3078-7-5" />
  </g>
  <g
     id="g4403-6-2"
     transform="matrix(0.94444444,0,0,0.94444444,2.5555565,8.888889)"
     inkscape:transform-center-x="0.92807765"
     inkscape:transform-center-y="14.009553"
     style="fill:#999999">
    <path
       sodipodi:nodetypes="ccccc"
       id="path3078-6-2"
       d="m 37.529412,34 0,7.411765 7.411765,0 0,-7.411765 z"
       style="color:#000000;display:inline;overflow:visible;visibility:visible;fill:#888888;fill-opacity:1;fill-rule:nonzero;stroke:none;stroke-width:1;marker:none;enable-background:accumulate"
       inkscape:connector-curvature="0" />
  </g>
  <g
     id="g4403-6-6"
     transform="matrix(0.94444444,0,0,0.94444444,-15.444443,8.888889)"
     inkscape:transform-center-x="0.92807765"
     inkscape:transform-center-y="14.009553"
     style="fill:#999999">
    <path
       sodipodi:nodetypes="ccccc"
       id="path3078-6-7"
       d="m 37.529412,34 0,7.411765 7.411765,0 0,-7.411765 z"
       style="color:#000000;display:inline;overflow:visible;visibility:visible;fill:#888888;fill-opacity:1;fill-rule:nonzero;stroke:none;stroke-width:1;marker:none;enable-background:accumulate"
       inkscape:connector-curvature="0" />
  </g>
  <g
     id="g4403-6-5"
     transform="matrix(0.94444444,0,0,0.94444444,-15.444443,-9.111111)"
     inkscape:transform-center-x="0.92807765"
     inkscape:transform-center-y="14.009553"
     style="fill:#999999">
    <path
       sodipodi:nodetypes="ccccc"
       id="path3078-6-73"
       d="m 37.529412,34 0,7.411765 7.411765,0 0,-7.411765 z"
       style="color:#000000;display:inline;overflow:visible;visibility:visible;fill:#888888;fill-opacity:1;fill-rule:nonzero;stroke:none;stroke-width:1;marker:none;enable-background:accumulate"
       inkscape:connector-curvature="0" />
  </g>
</svg>

<svg xmlns="http://www.w3.org/2000/svg" viewBox="0 0 64 64">
 <path d="m 10.672 0 c -1.375 0 -2.672 1.355 -2.672 2.789 l 0 58.42 c 0 1.355 1.375 2.789 2.672 2.789 l 42.656 0 c 1.297 0 2.672 -1.434 2.672 -2.789 l 0 -43.21 -18 -18 m -27.328 0" style="fill:#dcdcdc;fill-opacity:1;stroke:none;fill-rule:nonzero"/>
 <path d="m 38 0 17.984 18 -15.227 0 c -1.348 0 -2.758 -1.426 -2.758 -2.773 m 0 -15.227" style="fill:#fff;fill-opacity:0.392;stroke:none;fill-rule:nonzero"/>
 <path d="m 42 18 14 14 0 -14 z m 0 0" style="fill:#000;fill-opacity:0.196;stroke:none;fill-rule:nonzero"/>
 <g transform="matrix(0.94444444,0,0,0.94444444,-6.8888885,9.333333)" style="fill:#999">
  <path d="m 29 41 l 0 7 l 7 0 l 0 -7 l -7 0 z m 1 1 l 5 0 l 0 5 l -5 0 l 0 -5 z" transform="matrix(1.0588235,0,0,1.0588235,7.2941173,-9.8823526)" style="visibility:visible;fill:#888;fill-opacity:1;stroke:none;display:inline;color:#000;fill-rule:nonzero"/>
 </g>
 <g transform="matrix(0.94444444,0,0,0.94444444,-15.888889,0.3333333)" style="fill:#999">
  <path d="m 29 41 0 7 7 0 0 -7 -7 0 z m 1 1 5 0 0 5 -5 0 0 -5 z" transform="matrix(1.0588235,0,0,1.0588235,7.2941173,-9.8823526)" style="visibility:visible;fill:#888;fill-opacity:1;stroke:none;display:inline;color:#000;fill-rule:nonzero"/>
 </g>
 <g transform="matrix(0.94444444,0,0,0.94444444,-6.8888886,-8.6666667)" style="fill:#999">
  <path d="m 29 41 0 7 7 0 0 -7 -7 0 z m 1 1 5 0 0 5 -5 0 0 -5 z" transform="matrix(1.0588235,0,0,1.0588235,7.2941173,-9.8823526)" style="visibility:visible;fill:#888;fill-opacity:1;stroke:none;display:inline;color:#000;fill-rule:nonzero"/>
 </g>
 <g transform="matrix(0.94444444,0,0,0.94444444,-6.4444435,-0.11111096)" style="fill:#999">
  <path d="m 37.529 34 0 7.412 7.412 0 0 -7.412 z" style="visibility:visible;fill:#888;fill-opacity:1;stroke:none;display:inline;color:#000;fill-rule:nonzero"/>
 </g>
 <g transform="matrix(0.94444444,0,0,0.94444444,2.1111114,0.3333333)" style="fill:#999">
  <path d="m 29 41 0 7 7 0 0 -7 -7 0 z m 1 1 5 0 0 5 -5 0 0 -5 z" transform="matrix(1.0588235,0,0,1.0588235,7.2941173,-9.8823526)" style="visibility:visible;fill:#888;fill-opacity:1;stroke:none;display:inline;color:#000;fill-rule:nonzero"/>
 </g>
 <g transform="matrix(0.94444444,0,0,0.94444444,2.5555565,8.888889)" style="fill:#999">
  <path d="m 37.529 34 0 7.412 7.412 0 0 -7.412 z" style="visibility:visible;fill:#888;fill-opacity:1;stroke:none;display:inline;color:#000;fill-rule:nonzero"/>
 </g>
 <g transform="matrix(0.94444444,0,0,0.94444444,-15.444443,8.888889)" style="fill:#999">
  <path d="m 37.529 34 0 7.412 7.412 0 0 -7.412 z" style="visibility:visible;fill:#888;fill-opacity:1;stroke:none;display:inline;color:#000;fill-rule:nonzero"/>
 </g>
 <g transform="matrix(0.94444444,0,0,0.94444444,-15.444443,-9.111111)" style="fill:#999">
  <path d="m 37.529 34 0 7.412 7.412 0 0 -7.412 z" style="visibility:visible;fill:#888;fill-opacity:1;stroke:none;display:inline;color:#000;fill-rule:nonzero"/>
 </g>
</svg>
